icons/1_Primary/Firefox.svg

<svg width="1024" height="1024" viewBox="0 0 1024 1024" fill="none" xmlns="http://www.w3.org/2000/svg">
<g clip-path="url(#clip0_2_2208)">
<path d="M512 1024C794.77 1024 1024 794.77 1024 512C1024 229.23 794.77 0 512 0C229.23 0 0 229.23 0 512C0 794.77 229.23 1024 512 1024Z" fill="#F8C18C"/>
<path d="M768.1 497C767.98 495.39 767.85 493.77 767.85 492.16V492L767.48 487.16V487C766.168 472.618 763.636 458.373 759.91 444.42C759.91 444.3 759.91 444.3 759.79 444.17L758.67 440.07C758.55 439.82 758.55 439.57 758.42 439.45C758.05 438.21 757.68 436.84 757.3 435.6C757.18 435.35 757.18 434.98 757.05 434.73C756.68 433.49 756.31 432.25 755.93 431.13C755.81 430.76 755.68 430.51 755.56 430.13C755.19 428.89 754.82 427.77 754.32 426.53L753.95 425.41C753.58 424.29 753.08 423.05 752.71 421.93C752.607 421.589 752.484 421.255 752.34 420.93C751.84 419.81 751.47 418.57 750.97 417.45C750.85 417.2 750.72 416.83 750.6 416.58C750.1 415.34 749.6 414.22 749.11 412.98C749.11 412.86 748.99 412.73 748.99 412.61C747.38 408.61 745.64 404.66 743.78 400.82L743.41 400.08C742.91 399.08 742.54 398.22 742.04 397.35C741.79 396.85 741.54 396.23 741.3 395.74C740.93 394.87 740.43 394.13 740.06 393.26C739.69 392.64 739.44 392.02 739.06 391.4C738.68 390.78 738.19 389.91 737.82 389.04C737.45 388.42 737.08 387.67 736.7 387.04C736.32 386.41 735.83 385.55 735.46 384.81C735.093 384.08 734.679 383.375 734.22 382.7C733.85 381.96 733.35 381.33 732.98 380.59C732.61 379.85 732.11 379.22 731.74 378.48C731.37 377.74 730.87 377.11 730.5 376.48C730.13 375.85 729.63 374.99 729.13 374.25C728.76 373.602 728.345 372.981 727.89 372.39L726.4 370.16C726.03 369.512 725.615 368.891 725.16 368.3C724.66 367.56 724.04 366.69 723.55 365.94C723.18 365.44 722.81 364.82 722.43 364.33L720.57 361.72C720.2 361.22 719.95 360.85 719.57 360.35C718.57 358.98 717.71 357.74 716.71 356.5C709.261 346.766 701.127 337.576 692.37 329C686.428 322.829 680.081 317.063 673.37 311.74C669.27 308.14 664.93 304.74 660.46 301.56C652.454 295.601 643.934 290.367 635 285.92C632.52 284.55 630 283.31 627.55 282.07C609.278 273.125 590.029 266.333 570.19 261.83C568.19 261.46 566.19 260.96 564.35 260.59H564.23C563.23 260.47 562.37 260.22 561.37 260.09C548.378 257.665 535.212 256.297 522 256H511.11C495.294 256.2 479.536 257.945 464.06 261.21C429.3 268.53 398.63 283.21 378.27 301.56C377.15 302.56 376.27 303.3 375.79 303.79L375.29 304.29H375.41C375.441 304.29 375.472 304.277 375.494 304.255C375.517 304.232 375.53 304.202 375.53 304.17L375.41 304.29C375.477 304.223 375.565 304.181 375.66 304.17C390.81 295.11 411.79 287.66 426.81 283.93C428.81 283.43 430.91 282.93 432.89 282.44C433.26 282.32 433.76 282.32 434.13 282.19C435.87 281.82 437.61 281.45 439.47 281.07C439.72 281.07 440.09 280.95 440.34 280.95C506.76 268.78 577.53 288.65 626.82 335.7C637.455 345.804 646.796 357.187 654.63 369.59C686.04 420.49 683.06 484.59 658.63 522.3C623 577.18 543.39 596.05 494.1 548C477.548 531.943 468.04 509.977 467.66 486.92C467.489 475.913 469.692 464.999 474.12 454.92C475.86 450.92 487.65 428.35 492.99 429.47C479.46 426.61 454.13 432.2 436.38 458.65C420.49 482.36 421.38 518.86 431.17 544.81C424.91 532.009 420.68 518.312 418.63 504.21C406 418.76 463.44 345.89 516.2 327.76C487.77 302.93 416.38 304.67 363.37 343.65C332.46 366.37 310.37 398.65 298.69 437.14C300.43 415.54 308.62 383.26 325.38 350.36C307.63 359.55 285.03 388.6 273.86 415.42C257.72 454.16 252.13 500.42 257.22 544.54C257.59 547.89 257.96 551.12 258.34 554.47C278.95 675.63 384.6 768 511.61 768C653.51 768 768.61 652.91 768.61 511C768.48 506.29 768.35 501.57 768.1 497Z" fill="white"/>
</g>
<defs>
<clipPath id="clip0_2_2208">
<rect width="1024" height="1024" fill="white"/>
</clipPath>
</defs>
</svg>

<svg width="1024" height="1024" fill="none" xmlns="http://www.w3.org/2000/svg"><g clip-path="url(#a)"><path d="M512 1024c282.77 0 512-229.23 512-512S794.77 0 512 0 0 229.23 0 512s229.23 512 512 512Z" fill="#F8C18C"/><path d="M768.1 497c-.12-1.61-.25-3.23-.25-4.84V492l-.37-4.84V487a254.741 254.741 0 0 0-7.57-42.58c0-.12 0-.12-.12-.25l-1.12-4.1c-.12-.25-.12-.5-.25-.62-.37-1.24-.74-2.61-1.12-3.85-.12-.25-.12-.62-.25-.87-.37-1.24-.74-2.48-1.12-3.6-.12-.37-.25-.62-.37-1-.37-1.24-.74-2.36-1.24-3.6l-.37-1.12c-.37-1.12-.87-2.36-1.24-3.48a8.62 8.62 0 0 0-.37-1c-.5-1.12-.87-2.36-1.37-3.48-.12-.25-.25-.62-.37-.87-.5-1.24-1-2.36-1.49-3.6 0-.12-.12-.25-.12-.37-1.61-4-3.35-7.95-5.21-11.79l-.37-.74c-.5-1-.87-1.86-1.37-2.73-.25-.5-.5-1.12-.74-1.61-.37-.87-.87-1.61-1.24-2.48-.37-.62-.62-1.24-1-1.86-.38-.62-.87-1.49-1.24-2.36-.37-.62-.74-1.37-1.12-2-.38-.63-.87-1.49-1.24-2.23a18.648 18.648 0 0 0-1.24-2.11c-.37-.74-.87-1.37-1.24-2.11-.37-.74-.87-1.37-1.24-2.11-.37-.74-.87-1.37-1.24-2-.37-.63-.87-1.49-1.37-2.23a16.295 16.295 0 0 0-1.24-1.86l-1.49-2.23a16.295 16.295 0 0 0-1.24-1.86c-.5-.74-1.12-1.61-1.61-2.36-.37-.5-.74-1.12-1.12-1.61l-1.86-2.61c-.37-.5-.62-.87-1-1.37-1-1.37-1.86-2.61-2.86-3.85a257.669 257.669 0 0 0-24.34-27.5 192.077 192.077 0 0 0-19-17.26c-4.1-3.6-8.44-7-12.91-10.18A168.086 168.086 0 0 0 635 285.92c-2.48-1.37-5-2.61-7.45-3.85a262.709 262.709 0 0 0-57.36-20.24c-2-.37-4-.87-5.84-1.24h-.12c-1-.12-1.86-.37-2.86-.5A244.514 244.514 0 0 0 522 256h-10.89a242.795 242.795 0 0 0-47.05 5.21c-34.76 7.32-65.43 22-85.79 40.35-1.12 1-2 1.74-2.48 2.23l-.5.5h.12a.12.12 0 0 0 .12-.12l-.12.12a.421.421 0 0 1 .25-.12c15.15-9.06 36.13-16.51 51.15-20.24 2-.5 4.1-1 6.08-1.49.37-.12.87-.12 1.24-.25 1.74-.37 3.48-.74 5.34-1.12.25 0 .62-.12.87-.12 66.42-12.17 137.19 7.7 186.48 54.75a177.473 177.473 0 0 1 27.81 33.89c31.41 50.9 28.43 115 4 152.71C623 577.18 543.39 596.05 494.1 548a87.098 87.098 0 0 1-26.44-61.08 76.597 76.597 0 0 1 6.46-32c1.74-4 13.53-26.57 18.87-25.45-13.53-2.86-38.86 2.73-56.61 29.18-15.89 23.71-15 60.21-5.21 86.16a137.415 137.415 0 0 1-12.54-40.6C406 418.76 463.44 345.89 516.2 327.76c-28.43-24.83-99.82-23.09-152.83 15.89-30.91 22.72-53 55-64.68 93.49 1.74-21.6 9.93-53.88 26.69-86.78-17.75 9.19-40.35 38.24-51.52 65.06-16.14 38.74-21.73 85-16.64 129.12.37 3.35.74 6.58 1.12 9.93C278.95 675.63 384.6 768 511.61 768c141.9 0 257-115.09 257-257-.13-4.71-.26-9.43-.51-14Z" fill="#fff"/></g><defs><clipPath id="a"><path fill="#fff" d="M0 0h1024v1024H0z"/></clipPath></defs></svg>
